X: 4358
T: Bold Doherty
R: jig
M: 6/8
K: Eminor
EFG ABc|B2E GAB|c2A ~B3|AGE EDB|
EFG ABA|G2E GAB|c2A BdB|AGE EDB|
EFG ~A3|B2E GAB|c2A B/c/dB|AGF GFD|
EFG ABA|G2E GAB|c2A BdB|AGe edc||
~B3 edB|d2A GA/B/c|B2e edB|d{B}AG ~A3|
B2e edB|dBA GAB|c2A BdB|AGe edc|
~B3 edB|d2A GA/B/c|~B3 edB|d{B}AG ~A3|
f~g3fe|dBA GAB|cBA BdB|AGE EDB||

